packages/icons/src/share-2.svg

<svg width="15" height="15" viewBox="0 0 15 15" fill="none" xmlns="http://www.w3.org/2000/svg">
  <path
    fill-rule="evenodd"
    clip-rule="evenodd"
    d="M3.5 5.00006C3.22386 5.00006 3 5.22392 3 5.50006L3 11.5001C3 11.7762 3.22386 12.0001 3.5 12.0001L11.5 12.0001C11.7761 12.0001 12 11.7762 12 11.5001L12 5.50006C12 5.22392 11.7761 5.00006 11.5 5.00006L10.25 5.00006C9.97386 5.00006 9.75 4.7762 9.75 4.50006C9.75 4.22392 9.97386 4.00006 10.25 4.00006L11.5 4.00006C12.3284 4.00006 13 4.67163 13 5.50006L13 11.5001C13 12.3285 12.3284 13.0001 11.5 13.0001L3.5 13.0001C2.67157 13.0001 2 12.3285 2 11.5001L2 5.50006C2 4.67163 2.67157 4.00006 3.5 4.00006L4.75 4.00006C5.02614 4.00006 5.25 4.22392 5.25 4.50006C5.25 4.7762 5.02614 5.00006 4.75 5.00006L3.5 5.00006ZM7 1.6364L5.5682 3.0682C5.39246 3.24393 5.10754 3.24393 4.9318 3.0682C4.75607 2.89246 4.75607 2.60754 4.9318 2.4318L7.1818 0.181802C7.26619 0.09741 7.38065 0.049999 7.5 0.049999C7.61935 0.049999 7.73381 0.09741 7.8182 0.181802L10.0682 2.4318C10.2439 2.60754 10.2439 2.89246 10.0682 3.0682C9.89246 3.24393 9.60754 3.24393 9.4318 3.0682L8 1.6364L8 8.5C8 8.77614 7.77614 9 7.5 9C7.22386 9 7 8.77614 7 8.5L7 1.6364Z"
    fill="currentColor"
  />
</svg>

<svg xmlns="http://www.w3.org/2000/svg" width="15" height="15" fill="none"><path fill="currentColor" fill-rule="evenodd" d="M3.5 5a.5.5 0 0 0-.5.5v6a.5.5 0 0 0 .5.5h8a.5.5 0 0 0 .5-.5v-6a.5.5 0 0 0-.5-.5h-1.25a.5.5 0 0 1 0-1h1.25A1.5 1.5 0 0 1 13 5.5v6a1.5 1.5 0 0 1-1.5 1.5h-8A1.5 1.5 0 0 1 2 11.5v-6A1.5 1.5 0 0 1 3.5 4h1.25a.5.5 0 0 1 0 1zM7 1.636 5.568 3.068a.45.45 0 0 1-.636-.636l2.25-2.25a.45.45 0 0 1 .636 0l2.25 2.25a.45.45 0 0 1-.636.636L8 1.636V8.5a.5.5 0 0 1-1 0z" clip-rule="evenodd"/></svg>
